packages/calcite-ui-icons/icons/money-16.svg

<?xml version="1.0" encoding="UTF-8"?><svg id="icons" xmlns="http://www.w3.org/2000/svg" viewBox="0 0 16 16"><defs><style>.cls-1{fill:none;}.cls-2{fill-rule:evenodd;}</style></defs><path class="cls-2" d="M10.31488,8.0434c-.41138-.2406-.87109-.42902-1.31488-.58533V3.01862c1.16333.08978,1.79962.4881,2.14648.83496l.70709-.70721c-.54498-.54486-1.435-1.03625-2.85358-1.13025v-1.01611h-1v1.02881c-1.9549.23029-3,1.79187-3,2.97119,0,.58411.14679,1.1908.53058,1.72809.3847.53851.9801.96918,1.81134,1.24622.1814.06049.36829.11865.5575.17767.03351.0105.06702.02094.10059.03143v4.78455c-.92181-.11676-1.87921-.55426-2.64642-1.32159l-.70709.70721c.95709.95709,2.17053,1.50073,3.35352,1.62091v1.02551h1v-1.03314c1.52191-.2005,2.9-1.30737,2.9-3.16687,0-1.38318-.67411-2.22412-1.58512-2.75659ZM8,7.09277c-.12158-.0379-.23633-.0741-.34192-.10931-.66876-.22296-1.07336-.5423-1.31366-.87878-.24121-.33771-.34442-.73102-.34442-1.14691,0-.64966.62531-1.74438,2-1.96179v4.0968ZM9,12.91577v-4.43469c.28137.10968.55487.23413.81018.3833.71405.41748,1.18982.97662,1.18982,1.89343,0,1.16486-.89612,1.97015-2,2.15796Z"/><rect class="cls-1" width="16" height="16"/></svg>

<svg xmlns="http://www.w3.org/2000/svg" viewBox="0 0 16 16"><path d="M10.315 8.043A7.673 7.673 0 0 0 9 7.458v-4.44c1.163.09 1.8.489 2.146.836l.708-.708C11.309 2.602 10.419 2.11 9 2.016V1H8v1.029C6.045 2.259 5 3.82 5 5c0 .584.147 1.19.53 1.728.385.539.98.97 1.812 1.246.181.06.368.119.557.178L8 8.183v4.785a4.595 4.595 0 0 1-2.646-1.322l-.708.708c.958.957 2.171 1.5 3.354 1.62V15h1v-1.033c1.522-.2 2.9-1.307 2.9-3.167 0-1.383-.674-2.224-1.585-2.757zM8 7.093a18.599 18.599 0 0 1-.342-.11c-.669-.222-1.073-.542-1.314-.878A1.942 1.942 0 0 1 6 4.958c0-.65.625-1.745 2-1.962v4.097zm1 5.823V8.48c.281.11.555.234.81.383.714.418 1.19.977 1.19 1.894 0 1.165-.896 1.97-2 2.158z" fill-rule="evenodd"/><path fill="none" d="M0 0h16v16H0z"/></svg>
